X:6479
T:Graf Spee, The
R:reel
H:See also #662. Also played in C, #681
H:Related to "The Grand Spey", #642
D:Molloy, Peoples, Brady
Z:id:hn-reel-484
M:C|
K:D
FEDE FA~A2|BAdA BAdA|FEDE FA~A2|BAdA FE~E2:|
f2ef dBAF|Adfe dB~B2|fb~b2 fbba|fade fe~e2|
fddc dBAF|Adfe dB~B2|~b3a fafe|dBAF FE~E2||
|:faa^g ~a3e|fbba ~b3a|~f3e dcde|fbaf feeg:|
|:fdef dBAF|Adfe dBAF|ABde fded|BAdA FE~E2:|
fade fadf|gbef gbeg|fade fded|B2de fe~e2|
f2bf afeg|fdef dBAF|ABde fded|BAdA FE~E2||
